img/share.svg

<svg width="20" height="20" viewBox="0 0 20 20" fill="none" xmlns="http://www.w3.org/2000/svg">
<path d="M12.0225 13.7136C11.7965 14.0894 11.6666 14.5295 11.6666 15C11.6666 16.3807 12.7859 17.5 14.1666 17.5C15.5473 17.5 16.6666 16.3807 16.6666 15C16.6666 13.6193 15.5473 12.5 14.1666 12.5C13.2564 12.5 12.4597 12.9865 12.0225 13.7136ZM12.0225 13.7136L7.97731 11.2864M7.97731 11.2864C8.20329 10.9106 8.33325 10.4705 8.33325 10C8.33325 9.52952 8.20329 9.0894 7.97731 8.71357M7.97731 11.2864C7.5401 12.0135 6.74348 12.5 5.83325 12.5C4.45254 12.5 3.33325 11.3807 3.33325 10C3.33325 8.61929 4.45254 7.5 5.83325 7.5C6.74348 7.5 7.5401 7.98645 7.97731 8.71357M7.97731 8.71357L12.0225 6.28643M12.0225 6.28643C12.4597 7.01355 13.2564 7.5 14.1666 7.5C15.5473 7.5 16.6666 6.38071 16.6666 5C16.6666 3.61929 15.5473 2.5 14.1666 2.5C12.7859 2.5 11.6666 3.61929 11.6666 5C11.6666 5.47048 11.7965 5.9106 12.0225 6.28643Z" stroke="#686B6E" stroke-width="1.5" stroke-linecap="round" stroke-linejoin="round"/>
</svg>

<svg width="20" height="20" fill="none" xmlns="http://www.w3.org/2000/svg"><path d="M12.023 13.714a2.5 2.5 0 1 0 4.288 2.573 2.5 2.5 0 0 0-4.288-2.573Zm0 0-4.046-2.428m0 0c.226-.375.356-.816.356-1.286 0-.47-.13-.91-.356-1.286m0 2.572A2.499 2.499 0 0 1 3.333 10a2.5 2.5 0 0 1 4.644-1.286m0 0 4.046-2.428m0 0A2.499 2.499 0 0 0 16.666 5a2.5 2.5 0 1 0-4.645 1.286Z" stroke="#686B6E" stroke-width="1.5" stroke-linecap="round" stroke-linejoin="round"/></svg>
